X: 14
M: 6/4
L: 1/4
K: Dm
d2e fed | fa2- a2A | def efd | ^c3 A2d |\
cBA BAG | AcF B2A | GEF E2D | D3- D2 :|
|: F |\
E2F GAF | Ac2 B2A | fed gef | ^c3 A2a |\
bag a2A | BAG A2f | gfe e2d | d3- d2A |\

